Resources/Public/Images/Icons/InitSolrConnection.svg

<svg width="16px" height="16px" viewBox="0 0 8 9" version="1.1" xmlns="http://www.w3.org/2000/svg" xmlns:xlink="http://www.w3.org/1999/xlink">
    <!-- Generator: Sketch 42 (36781) - http://www.bohemiancoding.com/sketch -->
    <defs></defs>
    <g id="InitSolrConnection" stroke="none" stroke-width="1" fill="none" fill-rule="evenodd">
        <g id="solr-for-typo3" fill-rule="nonzero">
            <path d="M0.403408437,2.39079205 C0.225236,2.7880078 0.109718844,3.21944376 0.0696005937,3.67309908 L0.684944562,4.78050284 L0.403408437,2.39079205 Z" id="Path" fill="#060606"></path>
            <path d="M2.14954578,0.510795929 C1.59048547,0.81188618 1.11189772,1.24391624 0.753428844,1.76636842 L1.3277105,4.67793729 L2.14954578,0.510795929 Z" id="Path" fill="#000000"></path>
            <path d="M4.82003234,0.123739301 L2.55016241,5.07794531 L6.76081419,1.15616756 C6.23278653,0.644646824 5.56493488,0.278561952 4.82003234,0.123739301 Z" id="Path" fill="#000000"></path>
            <path d="M6.23308156,7.33740546 C6.75119759,6.98427199 7.18140744,6.51065487 7.48524453,5.95683418 L3.40745516,6.77229685 L6.23308156,7.33740546 Z" id="Path" fill="#000000"></path>
            <path d="M4.34618797,8.00586384 C4.78489344,7.96926724 5.20330372,7.86125972 5.58985541,7.69241629 L3.305708,7.41948642 L4.34618797,8.00586384 Z" id="Path" fill="#000000"></path>
            <path d="M4.01502322,0.0411592988 C4.20735509,0.0411592988 4.39626509,0.0556553567 4.58128128,0.0823898897 L1.97040575,4.78041967 L2.49288763,0.346764716 C2.96156384,0.150117374 3.47555009,0.0411592988 4.01502322,0.0411592988 Z M7.942664,3.51199083 C7.96461106,3.68202247 7.97711853,3.85490578 7.97711853,4.03099724 C7.97711853,4.59016485 7.86242741,5.12224147 7.65617216,5.60524536 L3.30569628,6.1250835 L7.942664,3.51199083 Z" id="Combined-Shape" fill="#000000"></path>
            <path d="M6.90409559,1.30210246 L3.01026031,5.54124883 L7.90386725,3.26774414 C7.75908734,2.51561262 7.40463041,1.83928835 6.90409559,1.30210246 Z" id="Path" fill="#000000"></path>
        </g>
    </g>
</svg>

<svg xmlns="http://www.w3.org/2000/svg" viewBox="0 0 64 64">
  <g fill="currentColor" transform="matrix(3.2 0 0 3.11 8.2 16.2)">
    <path d="M.403 2.391C.225 2.788.11 3.219.07 3.673l.615 1.108L.403 2.391Z"/>
    <path d="M2.15.511C1.59.812 1.112 1.244.753 1.766l.575 2.912L2.15.511Z"/>
    <path opacity=".55" d="M4.82.124 2.55 5.078l4.211-3.922A3.954 3.954 0 0 0 4.82.124Z"/>
    <path d="M6.233 7.337a3.98 3.98 0 0 0 1.252-1.38l-4.078.815 2.826.565Z"/>
    <path d="M4.346 8.006a3.904 3.904 0 0 0 1.244-.314l-2.284-.273 1.04.587Z"/>
    <path d="M4.015.041c.192 0 .381.015.566.041L1.97 4.78 2.493.347A3.91 3.91 0 0 1 4.015.041Zm3.928 3.471c.022.17.034.343.034.519 0 .559-.115 1.091-.321 1.574l-4.35.52 4.637-2.613Z"/>
    <path d="M6.904 1.302 3.01 5.541l4.894-2.273a3.983 3.983 0 0 0-1-1.966Z"/>
  </g>
  <path fill="none" stroke="currentColor" stroke-linecap="round" stroke-width="5" d="M37 27h8a7 7 0 0 1 7 7v4"/>
  <circle cx="52" cy="45" r="7" fill="currentColor"/>
  <circle cx="52" cy="45" r="3" fill="currentColor" opacity=".35"/>
</svg>
